Origami/24x24/apps/jockey.svg

<svg width="24" height="24" version="1" xmlns="http://www.w3.org/2000/svg">
 <path d="m6 5.5c-0.554 0-1 0.446-1 1v11c0 0.554 0.446 1 1 1h1.5v-2h5v2h9.5c0.554 0 1-0.446 1-1v-11c0-0.554-0.446-1-1-1z" style="opacity:.2"/>
 <path d="m6 5c-0.554 0-1 0.446-1 1v11c0 0.554 0.446 1 1 1h1.5v-2h5v2h9.5c0.554 0 1-0.446 1-1v-11c0-0.554-0.446-1-1-1z" style="fill:#419d45"/>
 <path d="m6 4.9849c-0.554 0-1 0.446-1 1v0.5c0-0.554 0.446-1 1-1h16c0.554 0 1 0.446 1 1v-0.5c0-0.554-0.446-1-1-1h-16z" style="fill:#ffffff;opacity:.2"/>
 <g style="opacity:.2">
  <rect x="13" y="16.5" width="2" height="3"/>
  <rect x="15.5" y="16.5" width="2" height="3"/>
  <rect x="18" y="16.5" width="2" height="3"/>
  <rect x="20.5" y="16.5" width="2" height="3"/>
 </g>
 <g style="fill:#f8c44e">
  <rect x="13" y="16" width="2" height="3"/>
  <rect x="15.5" y="16" width="2" height="3"/>
  <rect x="18" y="16" width="2" height="3"/>
  <rect x="20.5" y="16" width="2" height="3"/>
 </g>
 <rect x="11" y="8" width="5" height="5" rx="1" ry="1" style="fill:#4e4e4e"/>
 <g style="fill:#b7b7b7">
  <rect x="12" y="7" width="1" height="1.5"/>
  <rect x="14" y="7" width="1" height="1.5"/>
  <rect x="12" y="12.5" width="1" height="1.5"/>
  <rect x="14" y="12.5" width="1" height="1.5"/>
  <rect transform="rotate(90)" x="9" y="-17" width="1" height="1.5"/>
  <rect transform="rotate(90)" x="11" y="-17" width="1" height="1.5"/>
  <rect transform="rotate(90)" x="9" y="-11.5" width="1" height="1.5"/>
  <rect transform="rotate(90)" x="11" y="-11.5" width="1" height="1.5"/>
 </g>
 <path d="m3 5h2v15.5" style="fill:none;opacity:.2;stroke-linecap:round;stroke-linejoin:round;stroke-width:2;stroke:#000000"/>
 <path d="m3 4h2v16" style="fill:none;stroke-linecap:round;stroke-linejoin:round;stroke-width:2;stroke:#b7b7b7"/>
 <path d="m3 3a1.0001 1.0001 0 0 0 -0.9805 1.2461 1.0001 1.0001 0 0 1 0.9805 -0.7461h2a1.0001 1.0001 0 0 1 1 1v-0.5a1.0001 1.0001 0 0 0 -1 -1h-2z" style="fill:#ffffff;opacity:.2"/>
</svg>

<svg xmlns="http://www.w3.org/2000/svg" width="24" height="24" version="1">
 <path style="opacity:0.2" d="M 6,5.5 C 5.446,5.5 5,5.946 5,6.5 V 17.5 C 5,18.054 5.446,18.5 6,18.5 H 7.5 V 16.5 H 12.5 V 18.5 H 22 C 22.554,18.5 23,18.054 23,17.5 V 6.5 C 23,5.946 22.554,5.5 22,5.5 Z"/>
 <path style="fill:#419d45" d="M 6,5 C 5.446,5 5,5.446 5,6 l 0,11 c 0,0.554 0.446,1 1,1 l 1.5,0 0,-2 5,0 0,2 9.5,0 c 0.554,0 1,-0.446 1,-1 L 23,6 C 23,5.446 22.554,5 22,5 Z"/>
 <path style="opacity:0.2;fill:#ffffff" d="m 6,4.9849 c -0.554,0 -1,0.446 -1,1 l 0,0.5 c 0,-0.554 0.446,-1 1,-1 l 16,0 c 0.554,0 1,0.446 1,1 l 0,-0.5 c 0,-0.554 -0.446,-1 -1,-1 l -16,0 z"/>
 <g style="opacity:0.2">
  <rect width="2" height="3" x="13" y="16.5"/>
  <rect width="2" height="3" x="15.5" y="16.5"/>
  <rect width="2" height="3" x="18" y="16.5"/>
  <rect width="2" height="3" x="20.5" y="16.5"/>
 </g>
 <g style="fill:#f8c44e">
  <rect width="2" height="3" x="13" y="16"/>
  <rect width="2" height="3" x="15.5" y="16"/>
  <rect width="2" height="3" x="18" y="16"/>
  <rect width="2" height="3" x="20.5" y="16"/>
 </g>
 <rect style="fill:#4e4e4e" width="5" height="5" x="11" y="8" rx="1" ry="1"/>
 <g style="fill:#b7b7b7">
  <rect width="1" height="1.5" x="12" y="7"/>
  <rect width="1" height="1.5" x="14" y="7"/>
  <rect width="1" height="1.5" x="12" y="12.5"/>
  <rect width="1" height="1.5" x="14" y="12.5"/>
  <rect width="1" height="1.5" x="9" y="-17" transform="rotate(90)"/>
  <rect width="1" height="1.5" x="11" y="-17" transform="rotate(90)"/>
  <rect width="1" height="1.5" x="9" y="-11.5" transform="rotate(90)"/>
  <rect width="1" height="1.5" x="11" y="-11.5" transform="rotate(90)"/>
 </g>
 <path style="fill:none;stroke:#000000;stroke-width:2;stroke-linecap:round;stroke-linejoin:round;opacity:0.2" d="M 3,5 H 5 V 20.5"/>
 <path style="fill:none;stroke:#b7b7b7;stroke-width:2;stroke-linecap:round;stroke-linejoin:round" d="M 3,4 H 5 V 20"/>
 <path style="opacity:0.2;fill:#ffffff" d="M 3 3 A 1.0001 1.0001 0 0 0 2.0195 4.2461 A 1.0001 1.0001 0 0 1 3 3.5 L 5 3.5 A 1.0001 1.0001 0 0 1 6 4.5 L 6 4 A 1.0001 1.0001 0 0 0 5 3 L 3 3 z"/>
</svg>
